X:237
T:Boy-Girl Tune
R:jig
M:13/8
L:1/8
K:F#min
FCF ccB cdcz Bcd | ddc AcA BBG BAGA |
FCF ccB cdcz Bcd | ddc AcA BBG BAGA ::
FAB BAB ccE BEAc | BBE AEGB ABc GAG |
FAB BAB ccE BEAc |1 BBE AEGB ABc GAG :|2 BBA GBG AcA B=GGF |:
Bcd dcd f2d efed | c2E AE eE AE cdcF |
Bcd dcd f2d efed | c2E ABc B2=G GAGF :|
K:Gmin
|: ^FGA AGA c2A BcBA | GAB BAB f2B ^cdcB |
AGA AGA c2A BcBG | A2D FGA G2E EFED |]
